packages/nodes-base/nodes/Aws/Textract/textract.svg

<?xml version="1.0" encoding="UTF-8"?>
<svg width="80px" height="80px" viewBox="0 0 80 80" version="1.1" xmlns="http://www.w3.org/2000/svg" xmlns:xlink="http://www.w3.org/1999/xlink">
    <!-- Generator: Sketch 64 (93537) - https://sketch.com -->
    <title>Icon-Architecture/64/Arch_AWS-Textract_64</title>
    <desc>Created with Sketch.</desc>
    <defs>
        <linearGradient x1="0%" y1="100%" x2="100%" y2="0%" id="linearGradient-1">
            <stop stop-color="#055F4E" offset="0%"></stop>
            <stop stop-color="#56C0A7" offset="100%"></stop>
        </linearGradient>
    </defs>
    <g id="Icon-Architecture/64/Arch_AWS-Textract_64" stroke="none" stroke-width="1" fill="none" fill-rule="evenodd">
        <g id="Icon-Architecture-BG/64/Machine-Learning" fill="url(#linearGradient-1)">
            <rect id="Rectangle" x="0" y="0" width="80" height="80"></rect>
        </g>
        <path d="M22.0624102,50 C24.3763895,53.603 28.4103535,56 33.0003125,56 C40.1672485,56 45.9991964,50.168 45.9991964,43 C45.9991964,35.832 40.1672485,30 33.0003125,30 C27.6033607,30 22.9664021,33.307 21.0024196,38 L23.2143999,38 C25.0393836,34.444 28.7363506,32 33.0003125,32 C39.0652583,32 43.9992143,36.935 43.9992143,43 C43.9992143,49.065 39.0652583,54 33.0003125,54 C29.5913429,54 26.5413702,52.441 24.5213882,50 L22.0624102,50 Z M37.0002768,45 L37.0002768,43 L41.9992321,43 C41.9992321,38.038 37.9622682,34 33.0003125,34 C28.0373568,34 23.9993929,38.038 23.9993929,43 L28.9993482,43 L28.9993482,45 L24.2313908,45 C25.1443826,49.002 28.7253507,52 33.0003125,52 C35.1362934,52 37.0992759,51.249 38.6442621,50 L34.0003036,50 L34.0003036,48 L40.4782457,48 C41.0812403,47.102 41.5202364,46.087 41.7682342,45 L37.0002768,45 Z M21.0024196,48 L23.2143999,48 C22.4434068,46.498 22.0004107,44.801 22.0004107,43 C22.0004107,41.959 22.1554093,40.955 22.4264069,40 L20.3634253,40 C20.1344274,40.965 19.9994286,41.966 19.9994286,43 C19.9994286,44.771 20.3584254,46.46 21.0024196,48 L21.0024196,48 Z M19.7434309,50 L17.0004554,50 L17.0004554,48 L18.8744386,48 C18.5344417,47.04 18.2894438,46.038 18.1494451,45 L15.4144695,45 L16.707458,46.293 L15.2924706,47.707 L12.2924974,44.707 C11.9025009,44.316 11.9025009,43.684 12.2924974,43.293 L15.2924706,40.293 L16.707458,41.707 L15.4144695,43 L18.0004464,43 C18.0004464,41.973 18.1044455,40.97 18.3024437,40 L17.0004554,40 L17.0004554,38 L18.8744386,38 C20.9404202,32.184 26.4833707,28 33.0003125,28 C37.427273,28 41.4002375,29.939 44.148213,33 L59.0000804,33 L59.0000804,35 L45.6661994,35 C47.1351863,37.318 47.9991786,40.058 47.9991786,43 L59.0000804,43 L59.0000804,45 L47.8501799,45 C46.8681887,52.327 40.5912447,58 33.0003125,58 C27.2563638,58 22.2624084,54.752 19.7434309,50 L19.7434309,50 Z M37.0002768,39 C37.0002768,38.448 36.5522808,38 36.0002857,38 L29.9993482,38 C29.4473442,38 28.9993482,38.448 28.9993482,39 L28.9993482,41 L31.0003304,41 L31.0003304,40 L32.0003214,40 L32.0003214,43 L31.0003304,43 L31.0003304,45 L35.0002946,45 L35.0002946,43 L34.0003036,43 L34.0003036,40 L35.0002946,40 L35.0002946,41 L37.0002768,41 L37.0002768,39 Z M49.0001696,40 L59.0000804,40 L59.0000804,38 L49.0001696,38 L49.0001696,40 Z M49.0001696,50 L59.0000804,50 L59.0000804,48 L49.0001696,48 L49.0001696,50 Z M57.0000982,27 L60.5850662,27 L57.0000982,23.414 L57.0000982,27 Z M63.7070383,27.293 C63.8940367,27.48 64.0000357,27.735 64.0000357,28 L64.0000357,63 C64.0000357,63.552 63.5520397,64 63.0000446,64 L32.0003304,64 C31.4473264,64 31.0003304,63.552 31.0003304,63 L31.0003304,59 L33.0003125,59 L33.0003125,62 L62.0000536,62 L62.0000536,29 L56.0001071,29 C55.4471121,29 55.0001161,28.552 55.0001161,28 L55.0001161,22 L33.0003125,22 L33.0003125,27 L31.0003304,27 L31.0003304,21 C31.0003304,20.448 31.4473264,20 32.0003304,20 L56.0001071,20 C56.2651048,20 56.5191025,20.105 56.7071008,20.293 L63.7070383,27.293 Z M68,24.166 L68,61 C68,61.552 67.552004,62 67.0000089,62 L65.0000268,62 L65.0000268,60 L66.0000179,60 L66.0000179,24.612 L58.6170838,18 L36.0002857,18 L36.0002857,19 L34.0003036,19 L34.0003036,17 C34.0003036,16.448 34.4472996,16 35.0003036,16 L59.0000804,16 C59.2460782,16 59.483076,16.091 59.6660744,16.255 L67.666003,23.42 C67.8780011,23.61 68,23.881 68,24.166 L68,24.166 Z" id="Amazon-Textract_Icon_64_Squid" fill="#FFFFFF"></path>
    </g>
</svg>

<svg xmlns="http://www.w3.org/2000/svg" width="80" height="80"><defs><linearGradient id="a" x1="0%" x2="100%" y1="100%" y2="0%"><stop offset="0%" stop-color="#055F4E"/><stop offset="100%" stop-color="#56C0A7"/></linearGradient></defs><g fill="none" fill-rule="evenodd"><path fill="url(#a)" d="M0 0h80v80H0z"/><path fill="#FFF" d="M22.062 50c2.314 3.603 6.348 6 10.938 6 7.167 0 13-5.832 13-13s-5.833-13-13-13c-5.397 0-10.034 3.307-11.998 8h2.212c1.825-3.556 5.522-6 9.786-6 6.065 0 11 4.935 11 11s-4.935 11-11 11a10.99 10.99 0 0 1-8.479-4zM37 45v-2h5c0-4.962-4.038-9-9-9-4.963 0-9 4.038-9 9h5v2h-4.77c.913 4.002 4.494 7 8.77 7a8.95 8.95 0 0 0 5.643-2H34v-2h6.478a9 9 0 0 0 1.29-3zm-15.998 3h2.212A10.9 10.9 0 0 1 22 43c0-1.041.155-2.045.426-3h-2.063A13 13 0 0 0 20 43c0 1.771.36 3.46 1.003 5m-1.259 2H17v-2h1.874c-.34-.96-.585-1.962-.725-3h-2.735l1.293 1.293-1.415 1.414-3-3a1 1 0 0 1 0-1.414l3-3 1.415 1.414L15.414 43H18c0-1.027.104-2.03.302-3H17v-2h1.874C20.94 32.184 26.484 28 33 28c4.427 0 8.4 1.939 11.148 5H59v2H45.666A14.9 14.9 0 0 1 48 43h11v2H47.85c-.982 7.327-7.259 13-14.85 13-5.744 0-10.738-3.248-13.257-8M37 39a1 1 0 0 0-1-1h-6a1 1 0 0 0-1 1v2h2v-1h1v3h-1v2h4v-2h-1v-3h1v1h2zm12 1h10v-2H49zm0 10h10v-2H49zm8-23h3.585L57 23.414zm6.707.293c.187.187.293.442.293.707v35a1 1 0 0 1-1 1H32a1 1 0 0 1-1-1v-4h2v3h29V29h-6a1 1 0 0 1-1-1v-6H33v5h-2v-6a1 1 0 0 1 1-1h24a1 1 0 0 1 .707.293zM68 24.166V61a1 1 0 0 1-1 1h-2v-2h1V24.612L58.617 18H36v1h-2v-2a1 1 0 0 1 1-1h24c.246 0 .483.091.666.255l8 7.165c.212.19.334.461.334.746"/></g></svg>
